TF1/histpfuncpYp.svg

<svg xmlns="http://www.w3.org/2000/svg" viewBox="0 0 1200 800" preserveAspectRatio="none" width="1200" height="800">
 <title>
  fillrandom.root/sqroot;1
 </title>
 <rect x="0" y="0" width="1200" height="800" style="fill: none;"></rect>
 <g>
  <g transform="translate(120,80)">
   <title></title>
   <rect x="0" y="0" width="960" height="640" style="fill: white; stroke: black; stroke-width: 1;"></rect>
   <svg x="0" y="0" overflow="hidden" width="960" height="640" viewBox="0 0 960 640">
    <g>
     <path d="M0,415h5v-4h5v39h4v-46h5v21h5v11h5v-18h5v-46h4v64h5v-60h5v14h5v56h5v-10h4v10h5v-7h5v-35h5v-53h5v120h4v-42h5v49h5v-74h5v99h5v-57h4v-35h5v85h5v-43h5v11h5v46h4v-46h5v46h5v-14h5v-29h5v21h9v46h5v-35h5v-11h5v22h4v21h5v-57h5v-14h5v25h5v-18h4v25h5v18h5v35h5v-60h5v28h4v-46h5v36h5v-53h5v10h5v57h4v-64h5v39h5v-56h5v3h5v39h4v-74h5v-25h5v-28h5v123h5v-63h9v-81h5v-28h5v35h5v-35h4v10h5v-81h5v36h10v-46h4v-32h5v11h5v-113h5v148h5v-53h4v-106h5v67h5v28h5v-141h5v117h4v-67h5v10h5v57h5v-64h5v4h4v28h5v11h5v-29h5v120h5v35h4v-112h5v17h5v-24h5v56h5v56h4v-24h5v24h5v-3h5v14h5v32h4v53h5v-29h5v-14h5v57h5v-32h4v60h5v21h5v35h5v-7h5v4h4v56h5v-35h5v28h5v32h5v-29h4v46h5v11h5v-7h5v24h5v8h4v-15h5v29h5v-29h5v36h5v-25h4v11h5v21h10v17h5v-17h4v7h5v-11h5v11h5v7h5v-14h4v-4h5v25h5v-32h5v11h5v17h4v-14h5v14h5v-3h10v-7h4v24h5v-14h5v-7h5v-7h5v4h4v7h5v-50h5v60h5v-28h5v11h4v10h10v7h5v-14h9v11h5v-18h5v7h5v21h5v-7h4v-7h5v4h5v3h5v-7h5v14h4v-3h10v-4h5v4h5v-4h4v-3h5v17h5v-3h14v7h5v-7h5v3h5v4h5v-4h4v4h5v-7h5v3h5v4h5v-4h4v-3h10v-4h14v-10h5v14h5L960,643L0,643Z" style="stroke-linejoin: miter; stroke: rgb(0,0,154); stroke-width: 1; fill: rgb(192,131,120);"></path>
    </g>
    <g>
     <path d="M9.6,372.16c1.57,0.22,6.5,0.76,9.6,1.33s6.62,1.39,9.6,2.2s6.77,2.04,9.6,3.06s6.93,2.7,9.6,3.89s7.09,3.36,9.6,4.68s7.25,4.01,9.6,5.43s7.39,4.64,9.6,6.12s7.51,5.21,9.6,6.73s7.61,5.72,9.6,7.27s7.68,6.13,9.6,7.7s7.73,6.44,9.6,8.01s7.75,6.6,9.6,8.18s7.73,6.61,9.6,8.19s7.67,6.44,9.6,8.01s7.57,6.07,9.6,7.61s7.41,5.49,9.6,6.98s7.19,4.71,9.6,6.09s6.91,3.74,9.6,4.91s6.61,2.65,9.6,3.44s6.41,1.53,9.6,1.68s6.44,-0.03,9.6,-0.39s6.88,-1.59,9.6,-2.73s7.45,-3.81,9.6,-5.32s7.99,-6.5,9.6,-8.1s8.41,-9.47,9.6,-11.02s8.71,-12.56,9.6,-13.99s8.91,-15.6,9.6,-16.92s9.04,-18.48,9.6,-19.69s9.13,-21.07,9.6,-22.2s9.3,-23.39,9.6,-24.31s9.42,-35,9.6,-35.74s9.44,-42.13,9.6,-42.82s9.43,-41.21,9.6,-41.92s9.42,-39.46,9.6,-40.21s9.39,-36.84,9.6,-37.64s9.34,-33.35,9.6,-34.23s9.25,-29.02,9.6,-30.02s9.1,-23.92,9.6,-25.08s8.79,-18.13,9.6,-19.52s8.12,-11.9,9.6,-13.49s6.5,-6.6,9.6,-7.15s6.44,-1.04,9.6,-0.68s7.87,4.14,9.6,5.74s8.65,10.45,9.6,11.91s9.01,16.44,9.6,17.67s9.19,21.81,9.6,22.87s9.29,26.44,9.6,27.39s9.34,30.25,9.6,31.12s9.38,33.21,9.6,34.02s9.39,35.29,9.6,36.07s9.4,36.51,9.6,37.27s9.4,36.92,9.6,37.68s9.4,36.59,9.6,37.37s9.38,35.61,9.6,36.41s9.36,34.09,9.6,34.93s9.33,32.13,9.6,33.02s9.3,29.85,9.6,30.79s9.24,27.36,9.6,28.36s9.18,24.74,9.6,25.82s9.09,22.08,9.6,23.25s8.94,19.43,9.6,20.73s8.38,15.32,9.6,16.87s7.47,6.16,9.6,7.66s7.11,4.57,9.6,5.9s6.83,3.31,9.6,4.39s6.62,2.32,9.6,3.13s6.5,1.55,9.6,2.1s6.43,0.97,9.6,1.3s6.41,0.53,9.6,0.69s6.4,0.27,9.6,0.27s6.4,0,9.6,0s6.4,-0.09,9.6,-0.14s6.4,-0.12,9.6,-0.17s6.4,-0.1,9.6,-0.11s6.4,0,9.6,0.02s6.4,0.1,9.6,0.2s6.41,0.24,9.6,0.42s6.42,0.4,9.6,0.66s6.44,0.57,9.6,0.92s6.46,0.75,9.6,1.17s6.48,0.93,9.6,1.43s6.51,1.1,9.6,1.68s6.54,1.27,9.6,1.91s6.56,1.42,9.6,2.12s6.59,1.56,9.6,2.31s6.61,1.69,9.6,2.48s6.63,1.8,9.6,2.63s6.65,1.88,9.6,2.74s6.66,1.95,9.6,2.83s6.67,2,9.6,2.89s6.67,2.03,9.6,2.92s6.67,2.03,9.6,2.92s6.42,2.65,9.6,2.89s6.54,-0.75,9.6,-1.42s6.64,-1.92,9.6,-2.76s6.62,-1.85,9.6,-2.65s6.6,-1.76,9.6,-2.52s6.57,-1.65,9.6,-2.37s8.08,-1.85,9.6,-2.2" style="fill: none; stroke: blue; stroke-width: 6;"></path>
    </g>
   </svg>
   <g>
    <g transform="translate(0,640)">
     <line x1="0" y1="0" x2="960" y2="0" style="stroke: black; stroke-width: 1;"></line>
     <path d="M0,-24v24m48,-12v12m48,-12v12m48,-12v12m48,-24v24m48,-12v12m48,-12v12m48,-12v12m48,-24v24m48,-12v12m48,-12v12m48,-12v12m48,-24v24m48,-12v12m48,-12v12m48,-12v12m48,-24v24m48,-12v12m48,-12v12m48,-12v12m48,-24v24" style="stroke: black; stroke-width: 1;"></path>
     <g font-family="Arial" font-size="28" space="preserve">
      <text fill="black" text-anchor="middle" dy=".8em" transform="translate(0,6)">
       0
      </text>
      <text fill="black" text-anchor="middle" dy=".8em" transform="translate(192,6)">
       2
      </text>
      <text fill="black" text-anchor="middle" dy=".8em" transform="translate(384,6)">
       4
      </text>
      <text fill="black" text-anchor="middle" dy=".8em" transform="translate(576,6)">
       6
      </text>
      <text fill="black" text-anchor="middle" dy=".8em" transform="translate(768,6)">
       8
      </text>
      <text fill="black" text-anchor="middle" dy=".8em" transform="translate(960,6)">
       10
      </text>
     </g>
    </g>
    <g>
     <line x1="0" y1="0" x2="0" y2="640" style="stroke: black; stroke-width: 1;"></line>
     <path d="M36,640h-36m18,-18h-18m18,-17h-18m18,-18h-18m36,-17h-36m18,-18h-18m18,-18h-18m18,-17h-18m36,-18h-36m18,-18h-18m18,-17h-18m18,-18h-18m36,-17h-36m18,-18h-18m18,-18h-18m18,-17h-18m36,-18h-36m18,-17h-18m18,-18h-18m18,-18h-18m36,-17h-36m18,-18h-18m18,-18h-18m18,-17h-18m36,-18h-36m18,-17h-18m18,-18h-18m18,-18h-18m36,-17h-36m18,-18h-18m18,-17h-18m18,-18h-18m36,-18h-36m18,-17h-18m18,-18h-18m18,-18h-18m36,-17h-36" style="stroke: black; stroke-width: 1;"></path>
     <g font-family="Arial" font-size="28" space="preserve">
      <text fill="black" text-anchor="end" dy=".4em" transform="translate(-4,640)">
       0
      </text>
      <text fill="black" text-anchor="end" dy=".4em" transform="translate(-4,570)">
       20
      </text>
      <text fill="black" text-anchor="end" dy=".4em" transform="translate(-4,499)">
       40
      </text>
      <text fill="black" text-anchor="end" dy=".4em" transform="translate(-4,429)">
       60
      </text>
      <text fill="black" text-anchor="end" dy=".4em" transform="translate(-4,358)">
       80
      </text>
      <text fill="black" text-anchor="end" dy=".4em" transform="translate(-4,288)">
       100
      </text>
      <text fill="black" text-anchor="end" dy=".4em" transform="translate(-4,217)">
       120
      </text>
      <text fill="black" text-anchor="end" dy=".4em" transform="translate(-4,147)">
       140
      </text>
      <text fill="black" text-anchor="end" dy=".4em" transform="translate(-4,76)">
       160
      </text>
      <text fill="black" text-anchor="end" dy=".4em" transform="translate(-4,6)">
       180
      </text>
     </g>
    </g>
    <g transform="translate(960,0)">
     <line x1="0" y1="0" x2="0" y2="640" style="stroke: black; stroke-width: 1;"></line>
     <path d="M0,627h-18m18,-13h-18m18,-14h-18m18,-13h-18m18,-14h-36m36,-13h-18m18,-13h-18m18,-14h-18m18,-13h-18m18,-14h-36m36,-13h-18m18,-14h-18m18,-13h-18m18,-14h-18m18,-13h-36m36,-13h-18m18,-14h-18m18,-13h-18m18,-14h-18m18,-13h-36m36,-14h-18m18,-13h-18m18,-14h-18m18,-13h-18m18,-14h-36m36,-13h-18m18,-13h-18m18,-14h-18m18,-13h-18m18,-14h-36m36,-13h-18m18,-14h-18m18,-13h-18m18,-14h-18m18,-13h-36m36,-13h-18m18,-14h-18m18,-13h-18m18,-14h-18m18,-13h-36m36,-14h-18m18,-13h-18m18,-14h-18m18,-13h-18m18,-14h-36m36,-13h-18m18,-13h-18" style="stroke: black; stroke-width: 1;"></path>
     <g font-family="Arial" font-size="28" space="preserve">
      <text fill="black" text-anchor="start" dy=".4em" transform="translate(4,573)">
       5
      </text>
      <text fill="black" text-anchor="start" dy=".4em" transform="translate(4,506)">
       10
      </text>
      <text fill="black" text-anchor="start" dy=".4em" transform="translate(4,439)">
       15
      </text>
      <text fill="black" text-anchor="start" dy=".4em" transform="translate(4,372)">
       20
      </text>
      <text fill="black" text-anchor="start" dy=".4em" transform="translate(4,304)">
       25
      </text>
      <text fill="black" text-anchor="start" dy=".4em" transform="translate(4,237)">
       30
      </text>
      <text fill="black" text-anchor="start" dy=".4em" transform="translate(4,170)">
       35
      </text>
      <text fill="black" text-anchor="start" dy=".4em" transform="translate(4,103)">
       40
      </text>
      <text fill="black" text-anchor="start" dy=".4em" transform="translate(4,35)">
       45
      </text>
     </g>
    </g>
   </g>
  </g>
  <g transform="translate(120,4)" font-family="Arial" font-size="40" space="preserve">
   <path d="M0,0h960v53h-960z" style="fill: none;"></path>
   <text fill="black" text-anchor="middle" dy=".8em" transform="translate(480,0)">
    Test random numbers
   </text>
  </g>
  <g transform="translate(936,52)" font-family="Arial" font-size="26" space="preserve">
   <path d="M0,0h240v128h-240z" style="fill: white; stroke: black; stroke-width: 1;"></path>
   <text fill="black" text-anchor="middle" dy=".4em" transform="translate(120,16)">
    h1f
   </text>
   <text fill="black" text-anchor="start" dy=".4em" transform="translate(12,48)">
    Entries
   </text>
   <text fill="black" text-anchor="end" dy=".4em" transform="translate(228,48)">
    10000
   </text>
   <text fill="black" text-anchor="start" dy=".4em" transform="translate(12,80)">
    Mean
   </text>
   <text fill="black" text-anchor="end" dy=".4em" transform="translate(228,80)">
    3.637
   </text>
   <text fill="black" text-anchor="start" dy=".4em" transform="translate(12,112)">
    Std Dev
   </text>
   <text fill="black" text-anchor="end" dy=".4em" transform="translate(228,112)">
    1.834
   </text>
   <path d="M0,32h240" style="stroke: black; stroke-width: 1;"></path>
  </g>
 </g>
</svg>

<svg xmlns="http://www.w3.org/2000/svg" viewBox="0 0 1200 800" preserveAspectRatio="none" width="1200" height="800">
 <title>
  fillrandom.root/sqroot;1
 </title>
 <rect x="0" y="0" width="1200" height="800" style="fill: none;"></rect>
 <g>
  <g transform="translate(120,80)">
   <title></title>
   <rect x="0" y="0" width="960" height="640" style="fill: white; stroke: black; stroke-width: 1;"></rect>
   <svg x="0" y="0" overflow="hidden" width="960" height="640" viewBox="0 0 960 640">
    <g>
     <path d="M0,415h5v-4h5v39h4v-46h5v21h5v11h5v-18h5v-46h4v64h5v-60h5v14h5v56h5v-10h4v10h5v-7h5v-35h5v-53h5v120h4v-42h5v49h5v-74h5v99h5v-57h4v-35h5v85h5v-43h5v11h5v46h4v-46h5v46h5v-14h5v-29h5v21h9v46h5v-35h5v-11h5v22h4v21h5v-57h5v-14h5v25h5v-18h4v25h5v18h5v35h5v-60h5v28h4v-46h5v36h5v-53h5v10h5v57h4v-64h5v39h5v-56h5v3h5v39h4v-74h5v-25h5v-28h5v123h5v-63h9v-81h5v-28h5v35h5v-35h4v10h5v-81h5v36h10v-46h4v-32h5v11h5v-113h5v148h5v-53h4v-106h5v67h5v28h5v-141h5v117h4v-67h5v10h5v57h5v-64h5v4h4v28h5v11h5v-29h5v120h5v35h4v-112h5v17h5v-24h5v56h5v56h4v-24h5v24h5v-3h5v14h5v32h4v53h5v-29h5v-14h5v57h5v-32h4v60h5v21h5v35h5v-7h5v4h4v56h5v-35h5v28h5v32h5v-29h4v46h5v11h5v-7h5v24h5v8h4v-15h5v29h5v-29h5v36h5v-25h4v11h5v21h10v17h5v-17h4v7h5v-11h5v11h5v7h5v-14h4v-4h5v25h5v-32h5v11h5v17h4v-14h5v14h5v-3h10v-7h4v24h5v-14h5v-7h5v-7h5v4h4v7h5v-50h5v60h5v-28h5v11h4v10h10v7h5v-14h9v11h5v-18h5v7h5v21h5v-7h4v-7h5v4h5v3h5v-7h5v14h4v-3h10v-4h5v4h5v-4h4v-3h5v17h5v-3h14v7h5v-7h5v3h5v4h5v-4h4v4h5v-7h5v3h5v4h5v-4h4v-3h10v-4h14v-10h5v14h5L960,643L0,643Z" style="stroke-linejoin: miter; stroke: rgb(0,0,154); stroke-width: 1; fill: rgb(192,131,120);"></path>
    </g>
    <g>
     <path d="M9.6,372.16C11.17,372.37,16.1,372.92,19.2,373.49S25.82,374.87,28.8,375.69S35.57,377.73,38.4,378.75S45.33,381.45,48,382.64S55.09,386,57.6,387.32S64.85,391.33,67.2,392.75S74.59,397.38,76.8,398.86S84.31,404.07,86.4,405.6S94.01,411.31,96,412.87S103.68,419,105.6,420.57S113.33,427,115.2,428.58S122.95,435.18,124.8,436.76S132.53,443.38,134.4,444.96S142.07,451.4,144,452.97S151.57,459.04,153.6,460.58S161.01,466.07,163.2,467.56S170.39,472.27,172.8,473.65S179.71,477.39,182.4,478.56S189.01,481.21,192,482.01S198.41,483.54,201.6,483.68S208.04,483.65,211.2,483.3S218.08,481.71,220.8,480.57S228.25,476.76,230.4,475.26S238.39,468.75,240,467.15S248.41,457.68,249.6,456.13S258.31,443.58,259.2,442.14S268.11,426.54,268.8,425.22S277.84,406.74,278.4,405.53S287.53,384.46,288,383.33S297.3,359.94,297.6,359.01S307.02,324.01,307.2,323.28S316.64,281.15,316.8,280.46S326.23,239.24,326.4,238.53S335.82,199.07,336,198.32S345.39,161.48,345.6,160.68S354.94,127.33,355.2,126.45S364.45,97.42,364.8,96.43S373.9,72.51,374.4,71.35S383.19,53.22,384,51.83S392.12,39.93,393.6,38.34S400.1,31.74,403.2,31.19S409.64,30.15,412.8,30.51S420.67,34.65,422.4,36.25S431.05,46.7,432,48.16S441.01,64.6,441.6,65.83S450.79,87.64,451.2,88.71S460.49,115.15,460.8,116.09S470.14,146.35,470.4,147.22S479.78,180.42,480,181.24S489.39,216.52,489.6,217.31S499,253.81,499.2,254.58S508.6,291.5,508.8,292.27S518.2,328.85,518.4,329.63S527.78,365.24,528,366.05S537.36,400.14,537.6,400.97S546.93,433.11,547.2,433.99S556.5,463.85,556.8,464.79S566.04,492.14,566.4,493.15S575.58,517.88,576,518.97S585.09,541.05,585.6,542.22S594.54,561.66,595.2,562.95S603.58,578.27,604.8,579.83S612.27,585.98,614.4,587.49S621.51,592.06,624,593.4S630.83,596.7,633.6,597.79S640.22,600.11,643.2,600.92S649.7,602.47,652.8,603.02S659.23,603.98,662.4,604.31S668.81,604.84,672,605S678.4,605.27,681.6,605.27S688,605.27,691.2,605.27S697.6,605.18,700.8,605.13S707.2,605.01,710.4,604.97S716.8,604.87,720,604.86S726.4,604.86,729.6,604.88S736,604.98,739.2,605.09S745.61,605.33,748.8,605.51S755.22,605.91,758.4,606.17S764.84,606.74,768,607.08S774.46,607.83,777.6,608.26S784.08,609.18,787.2,609.69S793.71,610.79,796.8,611.36S803.34,612.63,806.4,613.27S812.96,614.69,816,615.39S822.59,616.96,825.6,617.71S832.21,619.4,835.2,620.19S841.83,621.99,844.8,622.82S851.45,624.7,854.4,625.56S861.06,627.51,864,628.39S870.67,630.39,873.6,631.27S880.27,633.3,883.2,634.19S889.87,636.22,892.8,637.11S899.22,639.76,902.4,640S908.94,639.25,912,638.58S918.64,636.66,921.6,635.82S928.22,633.98,931.2,633.17S937.8,631.42,940.8,630.65S947.37,629,950.4,628.28S958.48,626.42,960,626.08" style="fill: none; stroke: blue; stroke-width: 6;"></path>
    </g>
   </svg>
   <g>
    <g transform="translate(0,640)">
     <line x1="0" y1="0" x2="960" y2="0" style="stroke: black; stroke-width: 1;"></line>
     <path d="M0,-24v24m48,-12v12m48,-12v12m48,-12v12m48,-24v24m48,-12v12m48,-12v12m48,-12v12m48,-24v24m48,-12v12m48,-12v12m48,-12v12m48,-24v24m48,-12v12m48,-12v12m48,-12v12m48,-24v24m48,-12v12m48,-12v12m48,-12v12m48,-24v24" style="stroke: black; stroke-width: 1;"></path>
     <g font-family="Arial" font-size="28" space="preserve">
      <text fill="black" text-anchor="middle" dy=".8em" transform="translate(0,6)">
       0
      </text>
      <text fill="black" text-anchor="middle" dy=".8em" transform="translate(192,6)">
       2
      </text>
      <text fill="black" text-anchor="middle" dy=".8em" transform="translate(384,6)">
       4
      </text>
      <text fill="black" text-anchor="middle" dy=".8em" transform="translate(576,6)">
       6
      </text>
      <text fill="black" text-anchor="middle" dy=".8em" transform="translate(768,6)">
       8
      </text>
      <text fill="black" text-anchor="middle" dy=".8em" transform="translate(960,6)">
       10
      </text>
     </g>
    </g>
    <g>
     <line x1="0" y1="0" x2="0" y2="640" style="stroke: black; stroke-width: 1;"></line>
     <path d="M36,640h-36m18,-18h-18m18,-17h-18m18,-18h-18m36,-17h-36m18,-18h-18m18,-18h-18m18,-17h-18m36,-18h-36m18,-18h-18m18,-17h-18m18,-18h-18m36,-17h-36m18,-18h-18m18,-18h-18m18,-17h-18m36,-18h-36m18,-17h-18m18,-18h-18m18,-18h-18m36,-17h-36m18,-18h-18m18,-18h-18m18,-17h-18m36,-18h-36m18,-17h-18m18,-18h-18m18,-18h-18m36,-17h-36m18,-18h-18m18,-17h-18m18,-18h-18m36,-18h-36m18,-17h-18m18,-18h-18m18,-18h-18m36,-17h-36" style="stroke: black; stroke-width: 1;"></path>
     <g font-family="Arial" font-size="28" space="preserve">
      <text fill="black" text-anchor="end" dy=".4em" transform="translate(-4,640)">
       0
      </text>
      <text fill="black" text-anchor="end" dy=".4em" transform="translate(-4,570)">
       20
      </text>
      <text fill="black" text-anchor="end" dy=".4em" transform="translate(-4,499)">
       40
      </text>
      <text fill="black" text-anchor="end" dy=".4em" transform="translate(-4,429)">
       60
      </text>
      <text fill="black" text-anchor="end" dy=".4em" transform="translate(-4,358)">
       80
      </text>
      <text fill="black" text-anchor="end" dy=".4em" transform="translate(-4,288)">
       100
      </text>
      <text fill="black" text-anchor="end" dy=".4em" transform="translate(-4,217)">
       120
      </text>
      <text fill="black" text-anchor="end" dy=".4em" transform="translate(-4,147)">
       140
      </text>
      <text fill="black" text-anchor="end" dy=".4em" transform="translate(-4,76)">
       160
      </text>
      <text fill="black" text-anchor="end" dy=".4em" transform="translate(-4,6)">
       180
      </text>
     </g>
    </g>
    <g transform="translate(960,0)">
     <line x1="0" y1="0" x2="0" y2="640" style="stroke: black; stroke-width: 1;"></line>
     <path d="M0,627h-18m18,-13h-18m18,-14h-18m18,-13h-18m18,-14h-36m36,-13h-18m18,-13h-18m18,-14h-18m18,-13h-18m18,-14h-36m36,-13h-18m18,-14h-18m18,-13h-18m18,-14h-18m18,-13h-36m36,-13h-18m18,-14h-18m18,-13h-18m18,-14h-18m18,-13h-36m36,-14h-18m18,-13h-18m18,-14h-18m18,-13h-18m18,-14h-36m36,-13h-18m18,-13h-18m18,-14h-18m18,-13h-18m18,-14h-36m36,-13h-18m18,-14h-18m18,-13h-18m18,-14h-18m18,-13h-36m36,-13h-18m18,-14h-18m18,-13h-18m18,-14h-18m18,-13h-36m36,-14h-18m18,-13h-18m18,-14h-18m18,-13h-18m18,-14h-36m36,-13h-18m18,-13h-18" style="stroke: black; stroke-width: 1;"></path>
     <g font-family="Arial" font-size="28" space="preserve">
      <text fill="black" text-anchor="start" dy=".4em" transform="translate(4,573)">
       5
      </text>
      <text fill="black" text-anchor="start" dy=".4em" transform="translate(4,506)">
       10
      </text>
      <text fill="black" text-anchor="start" dy=".4em" transform="translate(4,439)">
       15
      </text>
      <text fill="black" text-anchor="start" dy=".4em" transform="translate(4,372)">
       20
      </text>
      <text fill="black" text-anchor="start" dy=".4em" transform="translate(4,304)">
       25
      </text>
      <text fill="black" text-anchor="start" dy=".4em" transform="translate(4,237)">
       30
      </text>
      <text fill="black" text-anchor="start" dy=".4em" transform="translate(4,170)">
       35
      </text>
      <text fill="black" text-anchor="start" dy=".4em" transform="translate(4,103)">
       40
      </text>
      <text fill="black" text-anchor="start" dy=".4em" transform="translate(4,35)">
       45
      </text>
     </g>
    </g>
   </g>
  </g>
  <g transform="translate(120,4)" font-family="Arial" font-size="40" space="preserve">
   <path d="M0,0h960v53h-960z" style="fill: none;"></path>
   <text fill="black" text-anchor="middle" dy=".8em" transform="translate(480,0)">
    Test random numbers
   </text>
  </g>
  <g transform="translate(936,52)" font-family="Arial" font-size="26" space="preserve">
   <path d="M0,0h240v128h-240z" style="fill: white; stroke: black; stroke-width: 1;"></path>
   <text fill="black" text-anchor="middle" dy=".4em" transform="translate(120,16)">
    h1f
   </text>
   <text fill="black" text-anchor="start" dy=".4em" transform="translate(12,48)">
    Entries
   </text>
   <text fill="black" text-anchor="end" dy=".4em" transform="translate(228,48)">
    10000
   </text>
   <text fill="black" text-anchor="start" dy=".4em" transform="translate(12,80)">
    Mean
   </text>
   <text fill="black" text-anchor="end" dy=".4em" transform="translate(228,80)">
    3.637
   </text>
   <text fill="black" text-anchor="start" dy=".4em" transform="translate(12,112)">
    Std Dev
   </text>
   <text fill="black" text-anchor="end" dy=".4em" transform="translate(228,112)">
    1.834
   </text>
   <path d="M0,32h240" style="stroke: black; stroke-width: 1;"></path>
  </g>
 </g>
</svg>
